X: 1
T: ST. PATRICK'S DAY IN THE MORNING -- JIG
B: Ryan's Mammoth Collection of Fiddle Tunes
R: jig
M: 6/8
L: 1/8
Z: Contributed 20000913170833 by John Chambers John.Chambers:weema.com
K: G
uD "Segno"[|]\
| G"4"AG GBc | d"4"ed dBG | "4"AGA BGD | EFE (E2D) \
| G"4"AG GBc | d"4"ed dBG | "4"AGA BGD | (E2F) G2 :|
ud \
| vdef (g2.g) | fed "4"edB | def gag | fed "4"e3 \
|  def (g2.g) | fed "4"edB | def gag | fed efg "D.S."[|]|]
